X: 1
T:A New Season
C: 1999 Harry Bolick -  harry@bolick.net   -   www.bolick.net
R:Waltz
O:US
A:Brooklyn, New York
M:3/4
L:1/8
Q:300
K:D
(fg)|:"D"  a2 ag fe | "Bm" d3  ed2  |"A"  c2  a2c2 |"G"  B3  c/2B/2 AG |"D" F4 F2 | "A" E3 (F GA) | 
[1 "G" B3 (c de) | "A" a2 ag fe |"D"  f3 (e f)g :|[2 "G"  B2 (BA) G2| "G"  B2 (BA) G2 | "D"  F4 F2 ||
K:G 
|:"Bm"  d3 B F2 | "Em"  G4  G2 |"Bm"   F3 EB,2 |"C"  C4 C2 |"G" (B,C) EFG2 |
[1 GF  (EDC)(A, | "Bm"  B,4) B,2 :| [2 "Bm"   dc BA (de) | "D" f2 e2d2 | "A" ^c6 ||
